X:29
T:Paddy on the Turnpike
M:2/4
L:1/16
Z: Jason R. Fruit <Jason R. Fruit@big-mac>
R: breakdown
K:A
AF | E2A2 A2AB | cABA cBAF | DF=GF G2GA | BcdB cBAF |
EFAB cde=g | fedf e2ed | cBAc BAGB | A2Ac A2 & A2AA A2 :|
|: cd | egab a2gf | eceg aecA | =GABd ef=ge | fedf e2cB |
AEAc ef=ge | fedf e2ed | cBAc BAGB | A2Ac A2 & A2AA A2 :|

